**harm	**harte	**timestamp	**phrase	**leadinstrument	**kern
*M4/4	*M4/4	*	*	*	*
*D:	*D:	*	*	*	*D:
1r;	N	0	.	r	1r;
=1	=1	=1	=1	=1	=1
*>A_intro	*>A_intro	*>A_intro	*>A_intro	*>A_intro	*>A_intro
2I	D:maj	0.302	newline	r	2D 2f# 2a
2I	D:sus4	1.77	.	r	2D 2f# 2a
=2	=2	=2	=2	=2	=2
1I	D:sus4	3.238	.	r	1D 1f# 1a
=3	=3	=3	=3	=3	=3
2I	D:maj	6.174	.	r	2D 2f# 2a
2I	D:sus4	7.642	.	r	2D 2f# 2a
=4	=4	=4	=4	=4	=4
1I	D:sus4	9.11	.	r	1D 1f# 1a
=5	=5	=5	=5	=5	=5
2I	D:maj	12.046	newline	r	2D 2f# 2a
2IVc	G:maj/5	13.471	.	r	2g 2b 2D
=6	=6	=6	=6	=6	=6
2I	D:maj	14.896	.	r	2D 2f# 2a
2V	A:sus4	16.321	.	r	2A 2cc# 2ee
=7	=7	=7	=7	=7	=7
2I	D:maj	17.746	.	r	2D 2f# 2a
2IVc	G:maj/5	19.171	.	r	2g 2b 2D
=8	=8	=8	=8	=8	=8
2I	D:maj	20.596	.	r	2D 2f# 2a
2V	A:sus4	22.021	.	r	2A 2cc# 2ee
=9	=9	=9	=9	=9	=9
*>B_verse	*>B_verse	*>B_verse	*>B_verse	*>B_verse	*>B_verse
2I	D:maj	23.446	newline	voice	2D 2f# 2a
2IVc	G:maj/5	24.869	.	voice	2g 2b 2D
=10	=10	=10	=10	=10	=10
2I	D:maj	26.292	.	voice	2D 2f# 2a
2V	A:sus4	27.714	.	voice	2A 2cc# 2ee
=11	=11	=11	=11	=11	=11
2I	D:maj	29.137	.	voice	2D 2f# 2a
2IVc	G:maj/5	30.56	.	voice	2g 2b 2D
=12	=12	=12	=12	=12	=12
2I	D:maj	31.983	.	voice	2D 2f# 2a
2V	A:sus4	33.405	.	voice	2A 2cc# 2ee
=13	=13	=13	=13	=13	=13
2I	D:maj	34.828	newline	voice	2D 2f# 2a
2IVc	G:maj/5	36.254	.	voice	2g 2b 2D
=14	=14	=14	=14	=14	=14
2I	D:maj	37.679	.	voice	2D 2f# 2a
2V	A:sus4	39.105	.	voice	2A 2cc# 2ee
=15	=15	=15	=15	=15	=15
2I	D:maj	40.53	.	voice	2D 2f# 2a
2IVc	G:maj/5	41.955	.	voice	2g 2b 2D
=16	=16	=16	=16	=16	=16
2I	D:maj	43.381	.	voice	2D 2f# 2a
2V	A:sus4	44.806	.	voice	2A 2cc# 2ee
=17	=17	=17	=17	=17	=17
*>C_chorus	*>C_chorus	*>C_chorus	*>C_chorus	*>C_chorus	*>C_chorus
2I	D:maj	46.232	newline	voice	2D 2f# 2a
2V7c	A:7/5	47.658	.	voice	2a 2cc# 2E 2gg
=18	=18	=18	=18	=18	=18
2Ib	D:maj/3	49.085	.	voice	2d 2F# 2a
2IV	G:maj	50.511	.	voice	2G 2b 2dd
=19	=19	=19	=19	=19	=19
2Ic	D:maj/5	51.937	.	voice	2d 2f# 2A
2V	A:sus4(b7)	53.364	.	voice	2A 2cc# 2ee
=20	=20	=20	=20	=20	=20
2I	D:maj	54.79	.	voice	2D 2f# 2a
2V	A:sus4(b7)	56.216	.	voice	2A 2cc# 2ee
=21	=21	=21	=21	=21	=21
2I	D:maj	57.643	newline	voice	2D 2f# 2a
2V7c	A:7/5	59.064	.	voice	2a 2cc# 2E 2gg
=22	=22	=22	=22	=22	=22
2Ib	D:maj/b3	60.486	.	voice	2d 2F# 2a
2IV	G:maj	61.908	.	voice	2G 2b 2dd
=23	=23	=23	=23	=23	=23
2Ic	D:maj/5	63.33	.	voice	2d 2f# 2A
2V	A:sus4(b7)	64.752	.	voice	2A 2cc# 2ee
=24	=24	=24	=24	=24	=24
*>A2_interlude	*>A2_interlude	*>A2_interlude	*>A2_interlude	*>A2_interlude	*>A2_interlude
2I	D:maj	66.173	->newline	voice	2D 2f# 2a
2I	D:sus4	67.599	.	voice	2D 2f# 2a
=25	=25	=25	=25	=25	=25
1I	D:sus4	69.024	.	voice	1D 1f# 1a
=26	=26	=26	=26	=26	=26
2I	D:maj	71.875	.	voice	2D 2f# 2a
2I	D:sus4	73.3	.	voice	2D 2f# 2a
=27	=27	=27	=27	=27	=27
1I	D:sus4	74.725	.	voice	1D 1f# 1a
=28	=28	=28	=28	=28	=28
2I	D:maj	77.576	newline	voice	2D 2f# 2a
2IVc	G:maj/5	79.003	.	voice	2g 2b 2D
=29	=29	=29	=29	=29	=29
2I	D:maj	80.429	.	voice	2D 2f# 2a
2V	A:sus4	81.855	.	voice	2A 2cc# 2ee
=30	=30	=30	=30	=30	=30
*>B_verse	*>B_verse	*>B_verse	*>B_verse	*>B_verse	*>B_verse
2I	D:maj	83.282	newline	voice	2D 2f# 2a
2IVc	G:maj/5	84.701	.	voice	2g 2b 2D
=31	=31	=31	=31	=31	=31
2I	D:maj	86.12	.	voice	2D 2f# 2a
2V	A:sus4	87.539	.	voice	2A 2cc# 2ee
=32	=32	=32	=32	=32	=32
2I	D:maj	88.959	.	voice	2D 2f# 2a
2IVc	G:maj/5	90.378	.	voice	2g 2b 2D
=33	=33	=33	=33	=33	=33
2I	D:maj	91.797	.	voice	2D 2f# 2a
2V	A:sus4	93.216	.	voice	2A 2cc# 2ee
=34	=34	=34	=34	=34	=34
2I	D:maj	94.635	newline	voice	2D 2f# 2a
2IVc	G:maj/5	96.057	.	voice	2g 2b 2D
=35	=35	=35	=35	=35	=35
2I	D:maj	97.479	.	voice	2D 2f# 2a
2V	A:sus4	98.9	.	voice	2A 2cc# 2ee
=36	=36	=36	=36	=36	=36
2I	D:maj	100.322	.	voice	2D 2f# 2a
2IVc	G:maj/5	101.744	.	voice	2g 2b 2D
=37	=37	=37	=37	=37	=37
2I	D:maj	103.165	.	voice	2D 2f# 2a
2V	A:sus4	104.587	.	voice	2A 2cc# 2ee
=38	=38	=38	=38	=38	=38
*>C2_chorus	*>C2_chorus	*>C2_chorus	*>C2_chorus	*>C2_chorus	*>C2_chorus
2I	D:maj	106.009	newline	voice	2D 2f# 2a
2V7c	A:7/5	107.437	.	voice	2a 2cc# 2E 2gg
=39	=39	=39	=39	=39	=39
2Ib	D:maj/3	108.866	.	voice	2d 2F# 2a
2IV	G:maj	110.294	.	voice	2G 2b 2dd
=40	=40	=40	=40	=40	=40
2Ic	D:maj/5	111.723	.	voice	2d 2f# 2A
2V	A:sus4(b7)	113.152	.	voice	2A 2cc# 2ee
=41	=41	=41	=41	=41	=41
2I	D:maj	114.58	.	voice	2D 2f# 2a
2V	A:sus4(b7)	116.009	.	voice	2A 2cc# 2ee
=42	=42	=42	=42	=42	=42
2I	D:maj	117.437	newline	voice	2D 2f# 2a
2V7c	A:7/5	118.862	.	voice	2a 2cc# 2E 2gg
=43	=43	=43	=43	=43	=43
2Ib	D:maj/3	120.287	.	voice	2d 2F# 2a
2IV	G:maj	121.711	.	voice	2G 2b 2dd
=44	=44	=44	=44	=44	=44
2Ic	D:maj/5	123.136	.	voice	2d 2f# 2A
2V	A:sus4(b7)	124.561	.	voice	2A 2cc# 2ee
=45	=45	=45	=45	=45	=45
1I	D:maj	125.985	.	voice	1D 1f# 1a
=46	=46	=46	=46	=46	=46
*>D_bridge	*>D_bridge	*>D_bridge	*>D_bridge	*>D_bridge	*>D_bridge
2IV	G:maj	128.835	newline	voice	2G 2b 2dd
2I	D:maj	130.257	.	voice	2D 2f# 2a
=47	=47	=47	=47	=47	=47
2V	A:maj	131.68	.	voice	2A 2cc# 2ee
2I	D:maj	133.102	.	voice	2D 2f# 2a
=48	=48	=48	=48	=48	=48
2IV	G:maj	134.524	.	voice	2G 2b 2dd
2I	D:maj	135.947	.	voice	2D 2f# 2a
=49	=49	=49	=49	=49	=49
*M2/4	*M2/4	*M2/4	*M2/4	*M2/4	*M2/4
4Ib	D:maj/3	137.369	.	voice	4d 4F# 4a
4IV	G:maj	138.08	.	voice	4G 4b 4dd
=50	=50	=50	=50	=50	=50
*M4/4	*M4/4	*M4/4	*M4/4	*M4/4	*M4/4
1Ic	D:maj/5	138.792	newline	voice	1d 1f# 1A
=51	=51	=51	=51	=51	=51
1V	A:sus4(b7)	141.652	.	voice	1A 1cc# 1ee
=52	=52	=52	=52	=52	=52
*>E_interlude	*>E_interlude	*>E_interlude	*>E_interlude	*>E_interlude	*>E_interlude
4I	D:maj	144.513	newline	voice	4D 4f# 4a
4Ib	D:maj/3	145.224	.	voice	4d 4F# 4a
2IV	G:maj	145.934	.	voice	2G 2b 2dd
=53	=53	=53	=53	=53	=53
4IV	G:maj	147.355	.	voice	4G 4b 4dd
4-IIIb	F:maj/3	148.065	.	voice	4f 4A 4cc
2-VI	B-:maj	148.775	.	voice	2B- 2dd 2ff
=54	=54	=54	=54	=54	=54
4-III	F:maj	150.196	.	voice	4F 4a 4cc
4-IIIb	F:maj/3	150.906	.	voice	4f 4A 4cc
2-VI	B-:maj	151.617	.	voice	2B- 2dd 2ff
=55	=55	=55	=55	=55	=55
4-VI	B-:maj	153.037	.	voice	4B- 4dd 4ff
4-IIc	E-:maj/5	153.748	.	voice	4e- 4g 4B-
2-VII	C:maj	154.458	.	voice	2C 2e 2g
=56	=56	=56	=56	=56	=56
4I	D:maj	155.879	newline	voice	4D 4f# 4a
4Ib	D:maj/3	156.589	.	voice	4d 4F# 4a
2IV	G:maj	157.298	.	voice	2G 2b 2dd
=57	=57	=57	=57	=57	=57
4IV	G:maj	158.717	.	voice	4G 4b 4dd
4-IIIb	F:maj/3	159.427	.	voice	4f 4A 4cc
2-VI	B-:maj	160.137	.	voice	2B- 2dd 2ff
=58	=58	=58	=58	=58	=58
4-III	F:maj	161.556	.	voice	4F 4a 4cc
4-IIIb	F:maj/3	162.265	.	voice	4f 4A 4cc
2-VI	B-:maj	162.975	.	voice	2B- 2dd 2ff
=59	=59	=59	=59	=59	=59
4-VI	B-:maj	164.394	.	voice	4B- 4dd 4ff
4-IIc	E-:maj/5	165.104	.	voice	4e- 4g 4B-
2-VII	C:maj	165.813	.	voice	2C 2e 2g
=60	=60	=60	=60	=60	=60
*>B_solo	*>B_solo	*>B_solo	*>B_solo	*>B_solo	*>B_solo
2I	D:maj	167.233	newline	synthesizer	2D 2f# 2a
2IVc	G:maj/5	168.657	.	synthesizer	2g 2b 2D
=61	=61	=61	=61	=61	=61
2I	D:maj	170.082	.	synthesizer	2D 2f# 2a
2V	A:sus4	171.506	.	synthesizer	2A 2cc# 2ee
=62	=62	=62	=62	=62	=62
2I	D:maj	172.931	.	synthesizer	2D 2f# 2a
2IVc	G:maj/5	174.355	.	synthesizer	2g 2b 2D
=63	=63	=63	=63	=63	=63
2I	D:maj	175.78	.	synthesizer	2D 2f# 2a
2V	A:sus4	177.205	.	synthesizer	2A 2cc# 2ee
=64	=64	=64	=64	=64	=64
2I	D:maj	178.629	newline	synthesizer	2D 2f# 2a
2IVc	G:maj/5	180.054	.	synthesizer	2g 2b 2D
=65	=65	=65	=65	=65	=65
2I	D:maj	181.479	.	synthesizer	2D 2f# 2a
2V	A:sus4	182.903	.	synthesizer	2A 2cc# 2ee
=66	=66	=66	=66	=66	=66
2I	D:maj	184.328	.	synthesizer	2D 2f# 2a
2IVc	G:maj/5	185.753	.	synthesizer	2g 2b 2D
=67	=67	=67	=67	=67	=67
2I	D:maj	187.177	.	synthesizer	2D 2f# 2a
2V	A:sus4	188.602	.	synthesizer	2A 2cc# 2ee
=68	=68	=68	=68	=68	=68
*>C2_chorus	*>C2_chorus	*>C2_chorus	*>C2_chorus	*>C2_chorus	*>C2_chorus
2I	D:maj	190.026	newline	voice	2D 2f# 2a
2V7c	A:7/5	191.448	.	voice	2a 2cc# 2E 2gg
=69	=69	=69	=69	=69	=69
2Ib	D:maj/3	192.87	.	voice	2d 2F# 2a
2IV	G:maj	194.292	.	voice	2G 2b 2dd
=70	=70	=70	=70	=70	=70
2Ic	D:maj/5	195.713	.	voice	2d 2f# 2A
2V	A:sus4(b7)	197.135	.	voice	2A 2cc# 2ee
=71	=71	=71	=71	=71	=71
2I	D:maj	198.557	.	voice	2D 2f# 2a
2V	A:sus4(b7)	199.978	.	voice	2A 2cc# 2ee
=72	=72	=72	=72	=72	=72
2I	D:maj	201.4	newline	voice	2D 2f# 2a
2V7c	A:7/5	202.833	.	voice	2a 2cc# 2E 2gg
=73	=73	=73	=73	=73	=73
2Ib	D:maj/3	204.266	.	voice	2d 2F# 2a
2IV	G:maj	205.699	.	voice	2G 2b 2dd
=74	=74	=74	=74	=74	=74
2Ic	D:maj/5	207.132	.	voice	2d 2f# 2A
2V	A:sus4(b7)	208.566	.	voice	2A 2cc# 2ee
=75	=75	=75	=75	=75	=75
1I	D:maj	209.999	.	voice	1D 1f# 1a
=76	=76	=76	=76	=76	=76
*>D_bridge	*>D_bridge	*>D_bridge	*>D_bridge	*>D_bridge	*>D_bridge
2IV	G:maj	212.865	newline	voice	2G 2b 2dd
2I	D:maj	214.282	.	voice	2D 2f# 2a
=77	=77	=77	=77	=77	=77
2V	A:maj	215.699	.	voice	2A 2cc# 2ee
2I	D:maj	217.116	.	voice	2D 2f# 2a
=78	=78	=78	=78	=78	=78
2IV	G:maj	218.533	.	voice	2G 2b 2dd
2I	D:maj	219.95	.	voice	2D 2f# 2a
=79	=79	=79	=79	=79	=79
*M2/4	*M2/4	*M2/4	*M2/4	*M2/4	*M2/4
4Ib	D:maj/3	221.367	.	voice	4d 4F# 4a
4IV	G:maj	222.075	.	voice	4G 4b 4dd
=80	=80	=80	=80	=80	=80
*M4/4	*M4/4	*M4/4	*M4/4	*M4/4	*M4/4
1Ic	D:maj/5	222.784	newline	voice	1d 1f# 1A
=81	=81	=81	=81	=81	=81
1V	A:sus4(b7)	225.626	.	voice	1A 1cc# 1ee
=82	=82	=82	=82	=82	=82
*>A2_outro	*>A2_outro	*>A2_outro	*>A2_outro	*>A2_outro	*>A2_outro
2I	D:maj	228.469	newline	voice	2D 2f# 2a
2I	D:sus4	229.894	.	voice	2D 2f# 2a
=83	=83	=83	=83	=83	=83
1I	D:sus4	231.318	.	voice	1D 1f# 1a
=84	=84	=84	=84	=84	=84
2I	D:maj	234.168	.	voice	2D 2f# 2a
2I	D:sus4	235.592	.	voice	2D 2f# 2a
=85	=85	=85	=85	=85	=85
1I	D:sus4	237.017	.	voice	1D 1f# 1a
=86	=86	=86	=86	=86	=86
2.I	D:maj	239.866	newline	voice	2D 2f# 2a
4IVc	G:maj/5	242.005	.	voice	4g 4b 4D
=87	=87	=87	=87	=87	=87
2.I	D:maj	242.718	.	voice	2D 2f# 2a
4IVc	G:maj/5	244.856	.	voice	4g 4b 4D
=88	=88	=88	=88	=88	=88
2.I	D:maj	245.569	.	voice	2D 2f# 2a
4IVc	G:maj/5	247.707	.	voice	4g 4b 4D
=89	=89	=89	=89	=89	=89
2.I	D:maj	248.42	.	voice	2D 2f# 2a
4IVc	G:maj/5	250.558	.	voice	4g 4b 4D
=90	=90	=90	=90	=90	=90
*>_fadeout	*>_fadeout	*>_fadeout	*>_fadeout	*>_fadeout	*>_fadeout
2.I	D:maj	251.271	newline	voice	2D 2f# 2a
4IVc	G:maj/5	253.316	.	voice	4g 4b 4D
=91	=91	=91	=91	=91	=91
2.I	D:maj	253.997	.	voice	2D 2f# 2a
4IVc	G:maj/5	256.042	.	voice	4g 4b 4D
=92	=92	=92	=92	=92	=92
2.I	D:maj	256.723	.	voice	2D 2f# 2a
4IVc	G:maj/5	258.768	.	voice	4g 4b 4D
=93	=93	=93	=93	=93	=93
2.I	D:maj	259.45	.	voice	2D 2f# 2a
4IVc	G:maj/5	261.494	.	voice	4g 4b 4D
1r;	N	262.176	.	r	1r;
1r;	N	262.696	.	r	1r;
*-	*-	*-	*-	*-	*-
!!!OTL: Back In The High Life Again
!!!COC: Steve Winwood
!!!BillboardChartDate: 1987/09/05
!!!BillboardPeak: 13
!!!BillboardWeeksOnChart: 21
!!!SampleTargetRank: 36
!!!SampleActualRank: 37
!!!SampleID#: 0207
!!!RDF**harmony: **recip + pitch class of root + harmonic quality
!!!RDF**harte: Chris Harte's syntax, used by MIREX
!!!RDF**phrase: newline = linebreak in original McGill transcription
!!!RDF**timestamp: McGill audio timestamp in seconds
!!!RDF**leadinstrument: original McGill primary instrumentation annotation
!!!RDT: 2017/01/12/
!!!ENC: Nathaniel Condit-Schultz
!!!EST: Awating manual error checking and editing.
